X:5
T: Dick Cosgrove's
S: "First Collection of Traditional Irish Music" (M.Mulvihill)
Z: B.Black
L: 1/8
M: 4/4
R: reel
K: Gmix
DGGF DE F2|DG (3GFG eGdG|DGGF D2 DE|F2 CF AB c2|
DGGF DE F2|DG (3GFG eGdG|DGGF D2 DE|F2 CF ABcA ||
dG (3GGG dGeG|dG (3GGG d2 cA|dG (3GGG dGeG|c2 AF CFAc|
dG (3GGG eG (3GGG|dG (3GGG d2 cA|dcde fefd|c2 AF CFAF||
